X: 4356
M: C|
L: 1/8
K: G
f2d2 fede | f2d2 d2A2 |
d2A2 BAGF | A2G2 f2d2 |\
f2d2 fede | f2d2 d2A2 |\
d^cBA |\
(G2F)z EFGE | (F2D)z ^cdec |\
d2B2 c2^A2 | B2z2 :|
|: B7/B/ |\
[1 G7/^G/ B2A2 | D2z2 :|\
[2 G7/B/ A2D2 | G2z2 |]


